logos/aws-codebuild.svg

<?xml version="1.0" encoding="UTF-8"?>
<svg width="256px" height="256px" viewBox="0 0 256 256" version="1.1" xmlns="http://www.w3.org/2000/svg" xmlns:xlink="http://www.w3.org/1999/xlink" preserveAspectRatio="xMidYMid">
    <title>AWS CodeBuild</title>
    <defs>
        <linearGradient x1="0%" y1="100%" x2="100%" y2="0%" id="linearGradient-1">
            <stop stop-color="#2E27AD" offset="0%"></stop>
            <stop stop-color="#527FFF" offset="100%"></stop>
        </linearGradient>
    </defs>
    <g>
        <rect fill="url(#linearGradient-1)" x="0" y="0" width="256" height="256"></rect>
        <path d="M209.406825,70.4 L190.353649,52.9568 L171.281416,70.4 L209.406825,70.4 Z M183.045537,51.0016 L144.396078,51.0592 L165.04046,67.4656 L183.045537,51.0016 Z M165.615327,107.2 L135.195036,118.4 L193.710743,118.4 L165.615327,107.2 Z M120.953588,182.4 L206.707175,182.4 L206.707175,124.8 L120.953588,124.8 L120.953588,182.4 Z M158.47237,70.4 L137.39922,53.6512 L116.465817,70.4 L158.47237,70.4 Z M109.789741,67.568 L130.396011,51.0816 L89.3168659,51.1424 L109.789741,67.568 Z M103.120018,70.4 L82.0881562,53.5232 L61.0562947,70.4 L92.3690586,70.4 L103.120018,70.4 Z M89.1929997,76.8 L63.4955078,76.8 L89.1929997,102.288 L89.1929997,76.8 Z M89.1929997,112.2656 L59.0331453,139.728 L89.1929997,169.2448 L89.1929997,112.2656 Z M89.1929997,179.6384 L57.4324115,210.6848 L57.4324115,211.2 L89.1929997,211.2 L89.1929997,179.6384 Z M57.4324115,147.0816 L57.4324115,201.7696 L85.3880813,174.4416 L57.4324115,147.0816 Z M57.4324115,132.5568 L85.1848134,107.2896 L57.4324115,79.7696 L57.4324115,132.5568 Z M54.256353,67.6736 L74.8308618,51.1648 L54.256353,51.1968 L54.256353,67.6736 Z M47.9042352,44.8 L41.5521178,44.8 L41.5521178,76.8 L47.9042352,76.8 L47.9042352,73.6 L47.9042352,48 L47.9042352,44.8 Z M220.586552,74.752 C220.11332,75.9872 218.935002,76.8 217.62329,76.8 L168.59447,76.8 L168.59447,102.4 L211.083785,118.6368 L211.080608,118.6432 C212.243046,119.12 213.059293,120.2624 213.059293,121.6 L213.059293,185.6 C213.059293,187.3664 211.639595,188.8 209.883234,188.8 L117.777529,188.8 C116.024344,188.8 114.60147,187.3664 114.60147,185.6 L114.60147,121.6 C114.60147,120.2304 115.465358,119.0816 116.669084,118.6272 L116.659556,118.6048 L162.242352,102.4 L162.242352,76.8 L95.5451174,76.8 L95.5451174,214.4 C95.5451174,216.1664 94.1254189,217.6 92.3690586,217.6 L54.256353,217.6 C52.5031683,217.6 51.0802941,216.1664 51.0802941,214.4 L51.0802941,83.2 L38.3760589,83.2 C36.6228742,83.2 35.2,81.7664 35.2,80 L35.2,41.6 C35.2,39.8336 36.6228742,38.4 38.3760589,38.4 L51.0802941,38.4 C52.8366544,38.4 54.256353,39.8336 54.256353,41.6 L54.256353,44.7968 L190.826881,44.8 L219.760777,71.232 C220.729475,72.1216 221.059785,73.52 220.586552,74.752 L220.586552,74.752 Z M154.686508,176.9856 L173.171171,134.6656 L167.358983,132.0864 L148.874321,174.4064 L154.686508,176.9856 Z M172.050022,162.8416 L176.156666,167.728 L189.87724,156.0224 C190.550564,155.4464 190.953924,154.6112 190.995212,153.7248 C191.036501,152.8352 190.703015,151.968 190.083684,151.3344 L178.630816,139.6256 L174.108108,144.1216 L183.153523,153.3696 L172.050022,162.8416 Z M130.786666,153.5488 C130.087933,152.9056 129.709982,151.9776 129.760799,151.024 C129.80844,150.0672 130.281672,149.1872 131.043926,148.6176 L146.628847,136.9984 L150.408357,142.1408 L137.920094,151.456 L148.401088,161.1328 L144.107056,165.8528 L130.786666,153.5488 Z" fill="#FFFFFF"></path>
    </g>
</svg>

<svg preserveAspectRatio="xMidYMid" viewBox="0 0 256 256" xmlns="http://www.w3.org/2000/svg">
  <defs>
    <linearGradient id="aws-codebuild_svg__a" x1="0%" x2="100%" y1="100%" y2="0%">
      <stop offset="0%" stop-color="#2E27AD"/>
      <stop offset="100%" stop-color="#527FFF"/>
    </linearGradient>
  </defs>
  <path fill="url(#aws-codebuild_svg__a)" d="M0 0h256v256H0z"/>
  <path fill="#FFF" d="m209.407 70.4-19.053-17.443L171.28 70.4h38.126Zm-26.361-19.398-38.65.057 20.644 16.407 18.006-16.464Zm-17.43 56.198-30.421 11.2h58.516l-28.096-11.2Zm-44.662 75.2h85.753v-57.6h-85.753v57.6Zm37.518-112L137.4 53.651 116.466 70.4h42.006Zm-48.682-2.832 20.606-16.486-41.08.06 20.474 16.426Zm-6.67 2.832L82.088 53.523 61.056 70.4h42.064Zm-13.927 6.4H63.496l25.697 25.488V76.8Zm0 35.466-30.16 27.462 30.16 29.517v-56.98Zm0 67.372-31.76 31.047v.515h31.76v-31.562Zm-31.76-32.556v54.688l27.955-27.328-27.956-27.36Zm0-14.525 27.752-25.267-27.753-27.52v52.787Zm-3.177-64.883 20.575-16.51-20.575.033v16.477ZM47.904 44.8h-6.352v32h6.352v-32Zm172.683 29.952a3.177 3.177 0 0 1-2.964 2.048h-49.029v25.6l42.49 16.237-.003.006a3.19 3.19 0 0 1 1.978 2.957v64c0 1.766-1.42 3.2-3.176 3.2h-92.105c-1.754 0-3.177-1.434-3.177-3.2v-64c0-1.37.864-2.518 2.068-2.973l-.01-.022 45.583-16.205V76.8H95.545v137.6c0 1.766-1.42 3.2-3.176 3.2H54.256c-1.753 0-3.176-1.434-3.176-3.2V83.2H38.376c-1.753 0-3.176-1.434-3.176-3.2V41.6c0-1.766 1.423-3.2 3.176-3.2H51.08c1.757 0 3.176 1.434 3.176 3.2v3.197l136.57.003 28.935 26.432a3.218 3.218 0 0 1 .826 3.52Zm-65.9 102.234 18.484-42.32-5.812-2.58-18.485 42.32 5.813 2.58Zm17.363-14.144 4.107 4.886 13.72-11.706a3.223 3.223 0 0 0 1.118-2.297 3.212 3.212 0 0 0-.911-2.39l-11.453-11.71-4.523 4.497 9.046 9.248-11.104 9.472Zm-41.263-9.293a3.204 3.204 0 0 1-1.026-2.525 3.203 3.203 0 0 1 1.283-2.406l15.585-11.62 3.78 5.143-12.489 9.315 10.481 9.677-4.294 4.72-13.32-12.304Z"/>
</svg>
